!!!!SEGMENT: pl-sa--173-a-v-3--001_szczurowski-jacek-missa-ex-d-kyrie.krn
!!!id: 17xx:253
!!!COM: Szczurowski, Jacek
!!!OTL: Missa ex D - Kyrie
!!!PDT:
!!!SMS-siglum: PL-SA
!!!SMS-shelfmark: 173/A V 3
!!!NIFC-rismID: 1001035621
!!!URL-scan: http://bc.bdsandomierz.pl/dlibra/publication/1507/edition/1475/content
!!!ONB-nifc: UWAGA: części Mszy: Kyrie, Gloria, Credo, Sanctus, Benedictus, Agnus Dei
**kern	**fba	**kern	**dynam	**kern	**dynam	**kern	**text	**kern	**text	**kern	**kern
*part7	*part7	*part6	*part6	*part5	*part5	*part4	*part4	*part3	*part3	*part2	*part1
*staff7	*	*staff6	*	*staff5	*	*staff4	*staff4	*staff3	*staff3	*staff2	*staff1
*I"Fundamento.	*	*I"Violino. 2do.	*	*I"Violino 1mo.	*	*I"Baſso	*	*I"Canto.	*	*I"Clarino 2do. Ex D.	*I"Clarino. 1mo Ex. D
*I'Fund.	*	*I'V-no 2	*	*I'V-no 1	*	*I'B.	*	*I'S.	*	*I'Cl-no 2 in D	*I'Cl-no 1 in D
*clefF4	*	*clefG2	*	*clefG2	*	*clefF4	*	*clefC1	*	*clefG2	*clefG2
*	*	*	*	*	*	*	*	*	*	*ITrd-1c-2	*ITrd-1c-2
*k[f#c#]	*	*k[f#c#]	*	*k[f#c#]	*	*k[f#c#]	*	*k[f#c#]	*	*k[f#c#]	*k[f#c#]
*M4/4	*	*M4/4	*	*M4/4	*	*M4/4	*	*M4/4	*	*M4/4	*M4/4
*met(c)	*	*met(c)	*	*met(c)	*	*met(c)	*	*met(c)	*	*met(c)	*met(c)
=1	=1	=1	=1	=1	=1	=1	=1	=1	=1	=1	=1
*	*	*	*below	*	*below	*	*	*	*	*	*
!LO:TX:b:t=Kirie.	!	!	!	!	!	!	!	!	!	!LO:TX:b:t=Kirie.	!LO:TX:b:t=Kirie.
!LO:TX:rj:a:B:i:t=Adagio	!	!LO:TX:rj:a:B:i:t=Adagio	!	!LO:TX:rj:a:B:i:t=Adagio	!	!	!	!LO:TX:a:B:i:t=Adagio	!	!LO:TX:rj:a:B:i:t=Adagio	!LO:TX:a:rj:B:i:t=Adagio.
4.D/	.	4.dd\	.	4.ff#\	.	4.D/	Ki-	4.ff#\	Ki-	4.dd\	4.ff#\
8D/	5 3	8dd\	.	8ff#\	.	8D/	-ri-	8ee\	-ri-	8dd\	8ff#\
*	*	*2\right	*	*2\right	*	*	*	*2\right	*	*2\right	*2\right
2D/	.	2dd\	.	2ff#\	.	2D/	-e-	2ff#\	-e-	2dd\	2ff#\
=2	=2	=2	=2	=2	=2	=2	=2	=2	=2	=2	=2
!	!	!	!	!	!	!	!	!LO:TX:a:i:t=Solo.	!	!	!
*	*	*tremolo	*	*tremolo	*	*	*	*	*	*	*
1r	.	8d/L	.	8d'>/L	.	1r	.	2a\	-e-	1r	1r
.	.	8d/	.	8d'>/	.	.	.	.	.	.	.
.	.	8d/	.	8d'>/	.	.	.	.	.	.	.
.	.	8d/J	.	8d'>/J	.	.	.	.	.	.	.
.	.	8d/L	.	8d'>/L	.	.	.	2b\	-ley-	.	.
.	.	8d/	.	8d'>/	.	.	.	.	.	.	.
.	.	8d/	.	8d'>/	.	.	.	.	.	.	.
.	.	8d/J	.	8d'>/J	.	.	.	.	.	.	.
*	*	*Xtremolo	*	*Xtremolo	*	*	*	*	*	*	*
=3	=3	=3	=3	=3	=3	=3	=3	=3	=3	=3	=3
!	!	!LO:TX:a:t=P:mixed beam:problem	!	!LO:TX:a:t=P:mixed beam:problem	!	!	!	!	!	!	!
4r	.	8d/L	.	8d/L	.	4r	.	4a\	-son-	8r	8r
.	.	8ff#\	.	8aa\	.	.	.	.	.	8dd\L	8dd\L
4d\	.	8ff#\	.	8aa\	.	4d\	-e-	4ee\	.	8dd\	8dd\
.	.	8ff#\J	.	8aa\J	.	.	.	.	.	8dd\J	8dd\J
*2\right	*	*	*	*	*	*2\right	*	*	*	*	*
2d\	6 4	2gg\	.	2bb\	.	2d\	-lei-	2gg\	-Ki-	8dd\L	8dd\L
.	.	.	.	.	.	.	.	.	.	8dd\	8dd\
.	.	.	.	.	.	.	.	.	.	8dd\	8dd\
.	.	.	.	.	.	.	.	.	.	8dd\J	8dd\J
=4	=4	=4	=4	=4	=4	=4	=4	=4	=4	=4	=4
2d\	5 3	2ff#\	.	2gg\	.	2d\	-son-	2ff#\	-ri-	2dd\	2dd\
4.G#X\	6	4.dd\	.	4.ccc#\	.	4.G#X\	-Ki-	4.ee\	-e-	2r	2r
8G#\	5	8dd\	.	8ccc#\	.	8G#\	-ri-	8ee\	-e-	.	.
=5	=5	=5	=5	=5	=5	=5	=5	=5	=5	=5	=5
4A\	6	4ee\	.	4ccc#\	.	4A\	-e-	4ee\	-ley-	4a/	4ee\
4F#\	6	4ff#\	.	4aa\	.	4F#\	-e-	4dd\	.	4dd\	4ff#\
4G\	5	4gg\	.	4bb\	.	4Gn\	-le-	4dd\	.	4ee\	4gg\
4A\	4	4cc#\	.	4ee\	.	4A\	-i-	4ee\	.	4a/	4ee\
.	3	.	.	.	.	.	.	.	.	.	.
=6	=6	=6	=6	=6	=6	=6	=6	=6	=6	=6	=6
1D\	.	1dd\	.	1ff#\	.	1D\	-son	1ff#\	-son.	1dd\	1ff#\
=7||	=7||	=7||	=7||	=7||	=7||	=7||	=7||	=7||	=7||	=7||	=7||
*M3/4	*	*M3/4	*	*M3/4	*	*M3/4	*	*M3/4	*	*M3/4	*M3/4
!LO:TX:b:t=Kirie.	!	!	!	!	!	!	!	!	!	!LO:TX:b:t=Kirie.	!LO:TX:b:t=Kirie.
!LO:TX:a:B:i:t=Allo.	!	!LO:TX:a:B:i:t=Allo.	!	!LO:TX:a:B:i:t=Allo.	!	!LO:TX:a:B:i:t=Allo.	!	!LO:TX:a:B:i:t=allo.	!	!LO:TX:a:B:i:t=allo.	!LO:TX:a:B:i:t=allo.
!	!	!	!	!	!	!LO:N:vis=00	!	!LO:N:vis=00	!	!	!
8D\L	.	8d/L	.	8d/L	.	0.r	.	0.r	.	8r	8r
!	!	!LO:TX:b:i:t=Kirie	!	!	!	!	!	!	!	!	!
16E\L	.	16e/L	.	16e/L	.	.	.	.	.	8f#/L	8dd\L
16F#\JJ	.	16f#/JJ	.	16f#/JJ	.	.	.	.	.	.	.
16G\LL	.	16g/LL	.	16g/LL	.	.	.	.	.	8f#/	8dd\
16A\	.	16a/	.	16a/JJ	.	.	.	.	.	.	.
16B\	.	16b/	.	16b\LL	.	.	.	.	.	8f#/	8dd\
16c#\JJ	.	16cc#/JJ	.	16cc#\JJ	.	.	.	.	.	.	.
16d\LL	.	16dd\LL	.	16dd/LL	.	.	.	.	.	8f#/	8dd\
16A\	.	16a\JJ	.	16a/	.	.	.	.	.	.	.
16F#\	.	16f#/LL	.	16f#/	.	.	.	.	.	8f#/J	8dd\J
16D\JJ	.	16d/JJ	.	16d/JJ	.	.	.	.	.	.	.
=8	=8	=8	=8	=8	=8	=8	=8	=8	=8	=8	=8
4A\	.	8a\L	.	8a\L	.	.	.	.	.	8r	8r
.	.	16b\L	.	16b\L	.	.	.	.	.	8a/L	8ee\L
.	.	16cc#\JJ	.	16cc#\JJ	.	.	.	.	.	.	.
4AA/	.	16dd\LL	.	16dd\LL	.	.	.	.	.	8a/	8ee\
.	.	16ee\	.	16ee\	.	.	.	.	.	.	.
.	.	16ff#\	.	16ff#\	.	.	.	.	.	8a/	8ee\
.	.	16gg#X\JJ	.	16gg#X\JJ	.	.	.	.	.	.	.
!	!	!LO:LB:g=original	!	!	!	!	!	!	!	!	!
4AA/	.	16aa\LL	.	16aa\LL	.	.	.	.	.	8a/	8ee\
.	.	16ee\	.	16ee\	.	.	.	.	.	.	.
.	.	16cc#\	.	16cc#\	.	.	.	.	.	8a/J	8ee\J
.	.	16a\JJ	.	16a\JJ	.	.	.	.	.	.	.
!	!	!	!	!LO:LB:g=original	!	!	!	!	!	!LO:LB:g=original	!
=9	=9	=9	=9	=9	=9	=9	=9	=9	=9	=9	=9
4D\	.	8dd\L	.	8dd\L	.	.	.	.	.	8r	8r
.	.	16ee\L	.	16ee\L	.	.	.	.	.	8dd\L	8ff#\L
.	.	16ff#\JJ	.	16ff#\JJ	.	.	.	.	.	.	.
4d\	.	16gg\LL	.	16gg\LL	.	.	.	.	.	8dd\	8ff#\
.	.	16aa\	.	16aa\	.	.	.	.	.	.	.
.	.	16bb\	.	16bb\	.	.	.	.	.	8dd\	8ff#\
.	.	16ccc#\JJ	.	16ccc#\JJ	.	.	.	.	.	.	.
4d\	.	16ddd\LL	.	16ddd\LL	.	.	.	.	.	8dd\	8ff#\
.	.	16aa\	.	16aa\	.	.	.	.	.	.	.
.	.	16ff#\	.	16ff#\	.	.	.	.	.	8dd\J	8ff#\J
.	.	16dd\JJ	.	16dd\JJ	.	.	.	.	.	.	.
!	!	!	!	!	!	!	!	!	!	!	!LO:LB:g=original
=10	=10	=10	=10	=10	=10	=10	=10	=10	=10	=10	=10
4G\	.	4gg`\	.	4bb\	.	.	.	.	.	4r	4r
8D\L	.	4ff#`\	.	4aa\	.	.	.	.	.	4r	4r
8E\	6	.	.	.	.	.	.	.	.	.	.
8F#\	6	4ee`\	.	4gg\	.	.	.	.	.	8r	8r
8G\J	5	.	.	.	.	.	.	.	.	8ee\	8gg\
=11	=11	=11	=11	=11	=11	=11	=11	=11	=11	=11	=11
!	!	!	!	!	!	!LO:N:vis=00	!	!LO:N:vis=00	!	!	!
4A\	6 4	4dd\	.	4ff#\	.	0.r	.	0.r	.	4dd\	4ff#\
.	.	8qqdd/	.	8qqff#/	.	.	.	.	.	.	.
4AA/	5 3	4cc#\	.	4ee\	.	.	.	.	.	4a/	4ee\
4r	.	4r	.	4r	.	.	.	.	.	4r	4r
=12	=12	=12	=12	=12	=12	=12	=12	=12	=12	=12	=12
4D\	.	8d/L	.	8d/L	.	.	.	.	.	2.r	2.r
.	.	16e/L	.	16e/L	.	.	.	.	.	.	.
.	.	16f#/JJ	.	16f#/JJ	.	.	.	.	.	.	.
4D\	.	16g/LL	.	16g/LL	.	.	.	.	.	.	.
.	.	16a/	.	16a/	.	.	.	.	.	.	.
.	.	16b/	.	16b/	.	.	.	.	.	.	.
.	.	16cc#/JJ	.	16cc#/JJ	.	.	.	.	.	.	.
4D\	.	16dd\LL	.	16dd\LL	.	.	.	.	.	.	.
.	.	16cc#\	.	16a\JJ	.	.	.	.	.	.	.
.	.	16b\	.	16f#/LL	.	.	.	.	.	.	.
.	.	16a\JJ	.	16d/JJ	.	.	.	.	.	.	.
!LO:LB:g=original	!	!	!	!	!	!	!	!	!	!	!
=13	=13	=13	=13	=13	=13	=13	=13	=13	=13	=13	=13
4G\	.	4g/	.	4b'>/	.	.	.	.	.	4r	4r
8D\L	.	4f#/	.	4a'>/	.	.	.	.	.	4r	4r
8E\	6	.	.	.	.	.	.	.	.	.	.
8F#\	6	4e/	.	4g'>/	.	.	.	.	.	8r	8r
8G\J	5	.	.	.	.	.	.	.	.	8d/	8d/
=14	=14	=14	=14	=14	=14	=14	=14	=14	=14	=14	=14
4A\	.	4d/	.	4f#/	.	.	.	.	.	4a/	4a/
.	.	8qqd/	.	8qqf#/	.	.	.	.	.	.	.
4D/	.	4c#/	.	4e/	.	.	.	.	.	4A/	4A/
4r	.	4r	.	4r	.	.	.	.	.	4r	4r
=15	=15	=15	=15	=15	=15	=15	=15	=15	=15	=15	=15
!	!	!	!	!	!	!LO:N:vis=00	!	!LO:N:vis=00	!	!	!
4D/	.	4ff#'\	.	16aa\LL	.	0.r	.	0.r	.	4ff#\	4aa\
.	.	.	.	16ddd\	.	.	.	.	.	.	.
.	.	.	.	16aa\	.	.	.	.	.	.	.
.	.	.	.	16ff#\JJ	.	.	.	.	.	.	.
*tremolo	*	*	*	*	*	*	*	*	*	*	*
8D/L	.	4ff#'\	.	16dd\LL	.	.	.	.	.	4ff#\	4aa\
.	.	.	.	16ee\	.	.	.	.	.	.	.
8D/	.	.	.	16ff#\	.	.	.	.	.	.	.
.	.	.	.	16gg\JJ	.	.	.	.	.	.	.
8D/	.	4ff#'\	.	8aa\L	.	.	.	.	.	4ff#\	4aa\
8D/J	.	.	.	8dd\J	.	.	.	.	.	.	.
*Xtremolo	*	*	*	*	*	*	*	*	*	*	*
=16	=16	=16	=16	=16	=16	=16	=16	=16	=16	=16	=16
4G\	.	8gg\	.	8bb\	.	.	.	.	.	4gg\	4bb\
.	.	4ff#\	.	4aa\	.	.	.	.	.	.	.
4G\	.	.	.	.	.	.	.	.	.	4r	4r
.	.	4ee\	.	4gg\	.	.	.	.	.	.	.
4G\	.	.	.	.	.	.	.	.	.	4r	4r
.	.	8dd\	.	8ff#\	.	.	.	.	.	.	.
!	!	!LO:LB:g=original	!	!	!	!	!	!	!	!	!
=17	=17	=17	=17	=17	=17	=17	=17	=17	=17	=17	=17
4C#/	.	4ee`\	.	16gg\LL	.	.	.	.	.	4ee\	4gg\
.	.	.	.	16ccc#\	.	.	.	.	.	.	.
.	.	.	.	16gg\	.	.	.	.	.	.	.
.	.	.	.	16ee\JJ	.	.	.	.	.	.	.
4C#/	.	4ee`\	.	16dd\LL	.	.	.	.	.	4ee\	4gg\
.	.	.	.	16ee\JJ	.	.	.	.	.	.	.
.	.	.	.	16ee\LL	.	.	.	.	.	.	.
!	!	!	!	!LO:LB:g=original	!	!	!	!	!	!	!
.	.	.	.	16ff#\JJ	.	.	.	.	.	.	.
4C#/	.	4ee`\	.	8gg\L	.	.	.	.	.	4ee\	4gg\
.	.	.	.	8ee\J	.	.	.	.	.	.	.
=18	=18	=18	=18	=18	=18	=18	=18	=18	=18	=18	=18
4F#\	.	8ff#\	.	8aa\	.	.	.	.	.	4ff#\	4aa\
.	.	4ee\	.	4gg\	.	.	.	.	.	.	.
4F#\	.	.	.	.	.	.	.	.	.	4r	4r
.	.	4dd\	.	4ff#\	.	.	.	.	.	.	.
4F#\	.	.	.	.	.	.	.	.	.	4r	4r
.	.	8cc#\	.	8ee\	.	.	.	.	.	.	.
=19	=19	=19	=19	=19	=19	=19	=19	=19	=19	=19	=19
!	!	!	!	!	!	!LO:N:vis=00	!	!LO:N:vis=00	!	!	!
4BB/	.	4dd'\	.	16ff#\LL	.	0.r	.	0.r	.	4dd\	4ff#\
.	.	.	.	16bb\	.	.	.	.	.	.	.
.	.	.	.	16ff#\	.	.	.	.	.	.	.
.	.	.	.	16dd\JJ	.	.	.	.	.	.	.
4BB/	.	4dd'\	.	16b\LL	.	.	.	.	.	4dd\	4ff#\
.	.	.	.	16cc#\	.	.	.	.	.	.	.
.	.	.	.	16dd\	.	.	.	.	.	.	.
.	.	.	.	16ee\JJ	.	.	.	.	.	.	.
4BB/	.	4dd'\	.	8ff#\L	.	.	.	.	.	4dd\	4ff#\
.	.	.	.	8b\J	.	.	.	.	.	.	.
!	!	!	!	!	!	!	!	!	!	!LO:LB:g=original	!
=20	=20	=20	=20	=20	=20	=20	=20	=20	=20	=20	=20
4A\	.	8ee\	.	8gg\	.	.	.	.	.	4ee\	4gg\
.	.	4dd\	.	4ff#\	.	.	.	.	.	.	.
4A\	.	.	.	.	.	.	.	.	.	4r	4r
.	.	4cc#\	.	4ee\	.	.	.	.	.	.	.
4A\	.	.	.	.	.	.	.	.	.	4r	4r
.	.	8b\	.	8dd\	.	.	.	.	.	.	.
=21	=21	=21	=21	=21	=21	=21	=21	=21	=21	=21	=21
!	!	!LO:TX:a:t=P:mixed beam:problem	!	!	!	!	!	!	!	!LO:TX:a:t=P:mixed beam:problem	!
4A\	.	8a/L	.	8cc#\L	.	.	.	.	.	8a/L	8ee\L
.	.	8ff#\J	.	8aa\	.	.	.	.	.	8ff#\J	8aa\
4A\	.	8ee\L	.	8gg\	.	.	.	.	.	8ee\L	8gg\
.	.	8cc#\	.	8ee\	.	.	.	.	.	8ee\	8gg\
4A\	.	8dd\	.	8ff#\	.	.	.	.	.	8dd\	8ff#\
.	.	8b\J	.	8dd\J	.	.	.	.	.	8dd\J	8ff#\J
=22	=22	=22	=22	=22	=22	=22	=22	=22	=22	=22	=22
!	!	!LO:TX:a:t=P:mixed beam:problem	!	!	!	!	!	!	!	!LO:TX:a:t=P:mixed beam:problem	!
4A\	.	8a/L	.	8ee\L	.	.	.	.	.	8a/L	8ee\L
.	.	8ff#\J	.	8aa\	.	.	.	.	.	8ff#\J	8aa\
4A\	.	8ee\L	.	8gg\	.	.	.	.	.	8ee\L	8gg\
.	.	8cc#\	.	8ee\	.	.	.	.	.	8ee\J	8gg\
4A\	.	8dd\	.	8ff#\	.	.	.	.	.	8dd\L	8ff#\
.	.	8b\J	.	8dd\J	.	.	.	.	.	8dd\J	8ff#\J
=23	=23	=23	=23	=23	=23	=23	=23	=23	=23	=23	=23
!LO:SIC:o=:v:t:dodatkowa pauza 2.r w canto i basso	!	!LO:SIC:o=:v:t:dodatkowa pauza 2.r w canto i basso	!	!LO:SIC:o=:v:t:dodatkowa pauza 2.r w canto i basso	!	!LO:SIC:o=:v:t:dodatkowa pauza 2.r w canto i basso	!	!LO:SIC:o=:v:t:dodatkowa pauza 2.r w canto i basso	!	!LO:SIC:o=:v:t:dodatkowa pauza 2.r w canto i basso	!LO:SIC:o=:v:t:dodatkowa pauza 2.r w canto i basso
2.ryy	.	2.ryy	.	2.ryy	.	2.r	.	2.r	.	2.ryy	2.ryy
=24	=24	=24	=24	=24	=24	=24	=24	=24	=24	=24	=24
8d\L	.	4cc#\	.	8ee\L	.	2d\	Ki-	2ff#\	Ki-	4a/	4ee\
8G\J	.	.	.	16aa\L	.	.	.	.	.	.	.
.	.	.	.	16dd\JJ	.	.	.	.	.	.	.
4A\	.	2cc#\	.	2cc#t\	.	.	.	.	.	2a/	2dd\
4AA/	4	.	.	.	.	4d\	-ri-	4ff#\	-ri-	.	.
.	3	.	.	.	.	.	.	.	.	.	.
!	!	!	!	!	!	!LO:LB:g=original	!	!	!	!	!LO:LB:g=original
=25	=25	=25	=25	=25	=25	=25	=25	=25	=25	=25	=25
4D\	.	8d/L	.	8d/L	.	2A\	-e-	2ee\	-e-	4dd\	4ff#\
.	.	16e/L	.	16e/L	.	.	.	.	.	.	.
.	.	16f#/JJ	.	16f#/JJ	.	.	.	.	.	.	.
4D\	.	16g/LL	.	16g/LL	.	.	.	.	.	4dd\	4ff#\
.	.	16a/	.	16a/	.	.	.	.	.	.	.
.	.	16b/	.	16b/	.	.	.	.	.	.	.
.	.	16cc#/JJ	.	16cc#/JJ	.	.	.	.	.	.	.
4D\	.	16dd/LL	.	16dd\LL	.	4A\	-e-	4ee\	-e-	4dd\	4ff#\
.	.	16a/	.	16a\JJ	.	.	.	.	.	.	.
.	.	16f#/	.	16f#/LL	.	.	.	.	.	.	.
.	.	16d/JJ	.	16d/JJ	.	.	.	.	.	.	.
!	!	!	!	!	!	!	!	!LO:LB:g=original	!	!	!
=26	=26	=26	=26	=26	=26	=26	=26	=26	=26	=26	=26
4A\	.	8a\L	.	8a\L	.	4d\	-lei-	4ff#\	-lei-	4a/	4ee\
.	.	16b\L	.	16b\L	.	.	.	.	.	.	.
.	.	16cc#\JJ	.	16cc#\JJ	.	.	.	.	.	.	.
4A\	.	16dd\LL	.	16dd\LL	.	4d\	-son-	4ff#\	-son-	4a/	4ee\
.	.	16ee\	.	16ee\	.	.	.	.	.	.	.
.	.	16ff#\	.	16ff#\	.	.	.	.	.	.	.
.	.	16gg#X\JJ	.	16gg#X\JJ	.	.	.	.	.	.	.
!	!	!LO:LB:g=original	!	!LO:LB:g=original	!	!	!	!	!	!	!
4A\	.	16aa\LL	.	16aa\LL	.	4d\	-e-	4ff#\	-e-	4a/	4ee\
.	.	16ee\	.	16ee\	.	.	.	.	.	.	.
.	.	16cc#\	.	16cc#\	.	.	.	.	.	.	.
.	.	16a\JJ	.	16a\JJ	.	.	.	.	.	.	.
=27	=27	=27	=27	=27	=27	=27	=27	=27	=27	=27	=27
4d\	.	8dd\L	.	8dd\L	.	4G\	-lei-	4dd\	-lei-	4dd\	4ff#\
.	.	16ee\L	.	16ee\L	.	.	.	.	.	.	.
.	.	16ff#\JJ	.	16ff#\JJ	.	.	.	.	.	.	.
4D/	.	16gg\LL	.	16gg\LL	.	8D\L	.	4dd\	-son-	4dd\	4ff#\
.	.	16aa\	.	16aa\	.	.	.	.	.	.	.
.	.	16bb\	.	16bb\	.	8E\	.	.	.	.	.
.	.	16ccc#\JJ	.	16ccc#\JJ	.	.	.	.	.	.	.
4D/	.	16ddd\LL	.	16ddd\LL	.	8F#\	.	4dd\	-e-	4dd\	4ff#\
.	.	16aa\	.	16aa\	.	.	.	.	.	.	.
.	.	16ff#\	.	16ff#\	.	8G\J	.	.	.	.	.
.	.	16dd\JJ	.	16dd\JJ	.	.	.	.	.	.	.
=28	=28	=28	=28	=28	=28	=28	=28	=28	=28	=28	=28
4G\	.	4gg`\	.	4bb`\	.	4A\	.	4ff#\	-lei-	4r	4r
8D\L	.	4ff#`\	.	4aa`\	.	4AA/	-son-	4ee\	-son-	4r	4r
8E\	.	.	.	.	.	.	.	.	.	.	.
8F#\	.	4ee`\	.	4gg`\	.	4r	.	4r	.	8r	8r
8G\J	.	.	.	.	.	.	.	.	.	8ee\	8gg\
=29	=29	=29	=29	=29	=29	=29	=29	=29	=29	=29	=29
4A\	6 4	4dd\	.	4ff#\	.	2.r	.	2.r	.	4dd\	4ff#\
.	.	8qqdd/	.	8qqff#/	.	.	.	.	.	.	.
4AA/	5 3	4cc#\	.	4ee\	.	.	.	.	.	4a/	4ee\
4r	.	4r	.	4r	.	.	.	.	.	4r	4r
!LO:LB:g=original	!	!	!	!	!	!	!	!	!	!	!
=30	=30	=30	=30	=30	=30	=30	=30	=30	=30	=30	=30
4D/	.	8d/L	.	8d/L	.	4r	.	4r	.	2.r	2.r
.	.	16e/L	.	16e/L	.	.	.	.	.	.	.
.	.	16f#/JJ	.	16f#/JJ	.	.	.	.	.	.	.
4D/	.	16g/LL	.	16g/LL	.	4r	.	4r	.	.	.
.	.	16a/	.	16a/	.	.	.	.	.	.	.
.	.	16b/	.	16b/	.	.	.	.	.	.	.
.	.	16cc#/JJ	.	16cc#/JJ	.	.	.	.	.	.	.
4D/	.	16dd/LL	.	16dd/LL	.	8r	.	8r	.	.	.
.	.	16a/	.	16a/JJ	.	.	.	.	.	.	.
.	.	16f#/	.	16f#/LL	.	8D/	-E-	8ff#\	-E-	.	.
.	.	16d/JJ	.	16d/JJ	.	.	.	.	.	.	.
!	!	!	!	!	!	!	!	!	!	!LO:LB:g=original	!
=31	=31	=31	=31	=31	=31	=31	=31	=31	=31	=31	=31
4G\	.	4g/	.	4b`>/	.	4A\	-lei-	4ff#\	-lei-	4r	4r
8D\L	.	4f#/	.	4a`>/	.	4AA/	-son-	4ee\	-son-	4r	4r
8E\	.	.	.	.	.	.	.	.	.	.	.
8F#\	.	4e/	.	4g`>/	.	4r	.	4r	.	8r	8r
8G\J	.	.	.	.	.	.	.	.	.	8d/	8d/
=32	=32	=32	=32	=32	=32	=32	=32	=32	=32	=32	=32
4A\	6 4	4d/	.	4f#/	.	4D/	-Ki-	4ff#\	-Ki-	4a/	4a/
.	.	8qqd/	.	.	.	.	.	.	.	.	.
4AA/	5 3	4c#/	.	8r	.	4D/	-ri-	4ff#\	-ri-	4A/	4A/
.	.	.	.	4e/	.	.	.	.	.	.	.
4r	.	4r	.	.	.	4D/	-e-	4ff#\	-e-	4r	4r
.	.	.	.	8r	.	.	.	.	.	.	.
=33	=33	=33	=33	=33	=33	=33	=33	=33	=33	=33	=33
4D\	.	4ff#'\	.	16aa\LL	.	4G\	-e-	4dd\	-e-	16ff#\LL	16aa\LL
.	.	.	.	16ddd\	.	.	.	.	.	16ee\	16gg\
.	.	.	.	16aa\	.	.	.	.	.	16dd\	16ff#\
.	.	.	.	16ff#\JJ	.	.	.	.	.	16ee\JJ	16gg\JJ
4D\	.	4ff#'\	.	16dd\LL	.	4G\	-lei-	4dd\	-lei-	16ff#\LL	16aa\LL
.	.	.	.	16ee\	.	.	.	.	.	16ee\	16gg\
.	.	.	.	16ff#\	.	.	.	.	.	16dd\	16ff#\
.	.	.	.	16gg\JJ	.	.	.	.	.	16ee\JJ	16gg\JJ
4D\	.	4ff#'\	.	8aa\L	.	4G\	-son-	4dd\	-son-	16ff#\LL	16aa\LL
.	.	.	.	.	.	.	.	.	.	16ee\	16gg\
.	.	.	.	8dd\J	.	.	.	.	.	16dd\	16ff#\
.	.	.	.	.	.	.	.	.	.	16ee\JJ	16gg\JJ
=34	=34	=34	=34	=34	=34	=34	=34	=34	=34	=34	=34
4G\	.	8gg\	.	8bb\	.	4C#/	.	2.ee\	.	4gg\	4bb\
.	.	4ff#\	.	4aa\	.	.	.	.	.	.	.
4G\	.	.	.	.	.	4C#/	.	.	.	4r	4r
.	.	4ee\	.	4gg\	.	.	.	.	.	.	.
4G\	.	.	.	.	.	4C#/	.	.	.	4r	4r
.	.	8dd\	.	8ff#\	.	.	.	.	.	.	.
=35	=35	=35	=35	=35	=35	=35	=35	=35	=35	=35	=35
*	*	*	*	*	*	*	*	*	*	*tremolo	*tremolo
4C#/	.	4ee'\	.	16gg\LL	.	4F#\	.	4a\	.	8ee\L	8gg\L
.	.	.	.	16aa\JJ	.	.	.	.	.	.	.
!	!	!	!	!LO:LB:g=original	!	!	!	!	!	!	!
.	.	.	.	16gg\LL	.	.	.	.	.	8ee\	8gg\
.	.	.	.	16ee\JJ	.	.	.	.	.	.	.
4C#/	.	4ee'\	.	16cc#\LL	.	4F#\	.	4a\	.	8ee\	8gg\
.	.	.	.	16dd\	.	.	.	.	.	.	.
.	.	.	.	16ee\	.	.	.	.	.	8ee\	8gg\
.	.	.	.	16ff#\JJ	.	.	.	.	.	.	.
4C#/	.	4ee'\	.	8gg\L	.	4F#\	.	4a\	.	8ee\	8gg\
.	.	.	.	8ee\J	.	.	.	.	.	8ee\J	8gg\J
!	!	!LO:LB:g=original	!	!	!	!LO:LB:g=original	!	!	!	!	!
*	*	*	*	*	*	*	*	*	*	*Xtremolo	*Xtremolo
=36	=36	=36	=36	=36	=36	=36	=36	=36	=36	=36	=36
4F#\	.	8ff#\	.	8aa\	.	4BB/	-Ki-	4dd\	-Ki-	4ff#\	4aa\
.	.	4ee\	.	4gg\	.	.	.	.	.	.	.
4F#\	.	.	.	.	.	4BB/	-ri-	4dd\	-ri-	4r	4r
.	.	4dd\	.	4ff#\	.	.	.	.	.	.	.
4F#\	.	.	.	.	.	4BB/	-e-	4dd\	-e-	4r	4r
.	.	8cc#\	.	8ee\	.	.	.	.	.	.	.
!	!	!	!	!	!	!	!	!LO:LB:g=original	!	!	!
=37	=37	=37	=37	=37	=37	=37	=37	=37	=37	=37	=37
*	*	*	*	*	*	*	*	*	*	*tremolo	*tremolo
4BB/	.	4dd'\	.	16ff#\LL	.	4E\	-e-	4g/	-e-	8dd\L	8ff#\L
.	.	.	.	16bb\	.	.	.	.	.	.	.
.	.	.	.	16ff#\	.	.	.	.	.	8dd\	8ff#\
.	.	.	.	16dd\JJ	.	.	.	.	.	.	.
4BB/	.	4dd'\	.	16b\LL	.	4E\	-lei-	4g/	-lei-	8dd\	8ff#\
.	.	.	.	16cc#\	.	.	.	.	.	.	.
.	.	.	.	16dd\	.	.	.	.	.	8dd\	8ff#\
.	.	.	.	16ee\JJ	.	.	.	.	.	.	.
4BB/	.	4dd'\	.	8ff#\L	.	4E\	-son-	4g/	-son-	8dd\	8ff#\
.	.	.	.	8b\J	.	.	.	.	.	8dd\J	8ff#\J
*	*	*	*	*	*	*	*	*	*	*Xtremolo	*Xtremolo
=38	=38	=38	=38	=38	=38	=38	=38	=38	=38	=38	=38
4E\	.	8ee\	.	8gg\	.	4A\	-Ki-	4cc#\	-Ki-	4ee\	4gg\
.	.	4dd\	.	4ff#\	.	.	.	.	.	.	.
4E\	.	.	.	.	.	4B\	-ri-	4dd\	-ri-	4r	4r
.	.	4cc#\	.	4ee\	.	.	.	.	.	.	.
4E\	.	.	.	.	.	4c#\	-re-	4ee\	-re-	4r	4r
.	.	8b\	.	8dd\	.	.	.	.	.	.	.
!	!	!	!	!	!	!	!	!	!	!	!LO:LB:g=original
=39	=39	=39	=39	=39	=39	=39	=39	=39	=39	=39	=39
*	*	*	*	*	*	*	*	*	*	*tremolo	*tremolo
4A\	.	8cc#\L	.	8ee\L	.	4d\	-e-	4ff#\	-e-	8a/L	8ee\L
.	.	8ee\	.	8aa\	.	.	.	.	.	8a/	8ee\
4B\	.	8ee\	.	8aa\	.	4G\	-le-	2ee\	-lei-	8a/	8ee\
.	.	8ee\	.	8aa\	.	.	.	.	.	8a/	8ee\
4c#\	6	8ee\	.	8aa\	.	4A\	-i-	.	.	8a/	8ee\
.	.	8ee\J	.	8aa\J	.	.	.	.	.	8a/J	8ee\J
*	*	*	*	*	*	*	*	*	*	*Xtremolo	*Xtremolo
=40	=40	=40	=40	=40	=40	=40	=40	=40	=40	=40	=40
4d\	.	8ff#\L	.	8aa\L	.	4D/	-son-	4dd\	-son-	8dd\L	8ff#\L
.	.	8ff#\	.	8aa\	.	.	.	.	.	8dd\J	8ff#\
!	!	!	!	!	!	!	!	!	!	!LO:LB:g=original	!
4G\	6	8gg\	.	8bb\	.	4D/	-Chris-	4ff#\	-Chris-	8gg\L	8bb\
.	.	8gg\J	.	8bb\	.	.	.	.	.	8gg\J	8bb\
4A\	5	8cc#\L	.	8ee\	.	4D/	-te-	4ff#\	-te-	8a/L	8ee\
.	.	8cc#\J	.	8ee\J	.	.	.	.	.	8a/J	8ee\J
=41	=41	=41	=41	=41	=41	=41	=41	=41	=41	=41	=41
*	*	*tremolo	*	*tremolo	*	*	*	*	*	*	*
4D/	.	8dd\L	.	8ff#\L	.	2D/	.	2b\	.	4dd\	4ff#\
.	.	8dd\	.	8ff#\	.	.	.	.	.	.	.
4D/	.	8dd\	.	8ff#\	.	.	.	.	.	4r	4r
.	.	8dd\	.	8ff#\	.	.	.	.	.	.	.
4D/	.	8dd\	.	8ff#\	.	4C#/	.	4ee\	.	4r	4r
.	.	8dd\J	.	8ff#\J	.	.	.	.	.	.	.
*	*	*Xtremolo	*	*Xtremolo	*	*	*	*	*	*	*
=42	=42	=42	=42	=42	=42	=42	=42	=42	=42	=42	=42
2D/	4 2	8dd\L	.	8gg#X\L	.	4D/	-e-	8dd\L	-e-	2.r	2.r
.	.	8dd\	.	8gg#\	.	.	.	8cc#\J	-lei-	.	.
.	.	8dd\	.	8gg#\	.	4E\	-lei-	2b\	-son-	.	.
.	.	8dd\	.	8gg#\	.	.	.	.	.	.	.
4C#/	6	8ee\	.	8aa\	.	4EE/	.	.	.	.	.
.	.	8ee\J	.	8aa\J	.	.	.	.	.	.	.
=43	=43	=43	=43	=43	=43	=43	=43	=43	=43	=43	=43
!	!	!	!	!	!	!LO:TX:rj:a:i:t=Solo	!	!LO:TX:a:i:t=Solo	!	!	!
4D/	6	4dd\	.	4aa\	.	4AA/	-son-	4cc#\	-Cri-	4ee\	4aa\
.	5	.	.	.	.	.	.	.	.	.	.
4E\	4	2b/	.	2gg#X\	.	4c#\	-Chris-	4ee\	.	2ee\	2gg#X\
.	3	.	.	.	.	.	.	.	.	.	.
4EE/	.	.	.	.	.	4d\	-te-	4ff#\	-ste-	.	.
=44	=44	=44	=44	=44	=44	=44	=44	=44	=44	=44	=44
4AA/	.	4cc#\	.	4aa\	.	4c#\	.	4ee\	.	4ee\	4aa\
4r	.	4r	.	4r	.	4B\	.	4dd\	.	4r	4r
4D/	.	4r	.	4r	.	4A\	-e-	4cc#\	-e-	4r	4r
=45	=45	=45	=45	=45	=45	=45	=45	=45	=45	=45	=45
!	!	!LO:TX:a:t=2	!	!LO:TX:a:t=2	!	!	!	!	!	!	!
!	!	!LO:N:vis=0	!	!LO:N:vis=0	!	!	!	!	!	!LO:N:vis=00	!LO:N:vis=00
2AA/	.	1.r	.	1.r	.	4B\	-lei-	4dd\	-lei-	1.r	1.r
.	.	.	.	.	.	4A\	.	4cc#\	.	.	.
!LO:LB:g=original	!	!	!	!	!	!	!	!	!	!	!
4AA/	.	.	.	.	.	4G#X\	.	4b\	.	.	.
!	!	!	!	!	!	!LO:LB:g=original	!	!	!	!	!
=46	=46	=46	=46	=46	=46	=46	=46	=46	=46	=46	=46
*tremolo	*	*	*	*	*	*	*	*	*	*	*
8BB/L	6\	.	.	.	.	4A\	-son-	4cc#\	-son-	.	.
8BB/	.	.	.	.	.	.	.	.	.	.	.
8BB/	.	.	.	.	.	4r	.	4r	.	.	.
8BB/J	.	.	.	.	.	.	.	.	.	.	.
4BB/	.	.	.	.	.	4r	.	4r	.	.	.
!	!	!	!	!LO:LB:g=original	!	!	!	!LO:LB:g=original	!	!	!
=47	=47	=47	=47	=47	=47	=47	=47	=47	=47	=47	=47
8AA/L	.	8A/L	.	8A/L	.	4r	.	4r	.	4a/	4ee\
16BB/L	.	16B/L	.	16B/L	.	.	.	.	.	.	.
16C#/JJ	.	16c#/JJ	.	16c#/JJ	.	.	.	.	.	.	.
*	*	*	*	*	*	*	*	*	*	*	*tremolo
16D\LL	.	16d/LL	.	16d/LL	.	4c#\	-Chris-	4ee\	-Chris-	8a/L	8ee\L
16E\	.	16e/JJ	.	16e/	.	.	.	.	.	.	.
!	!	!LO:LB:g=original	!	!	!	!	!	!	!	!	!
16F#\	.	16f#/LL	.	16f#/	.	.	.	.	.	8a/	8ee\
16G#X\JJ	.	16g#X/JJ	.	16g/JJ	.	.	.	.	.	.	.
16A\LL	.	16a/LL	.	16a/LL	.	4d\	-te-	4ff#\	-te-	8a/	8ee\
16E\	.	16e/	.	16e/	.	.	.	.	.	.	.
16C#\	.	16c#/	.	16c#/	.	.	.	.	.	8a/J	8ee\J
16AA\JJ	.	16A/JJ	.	16A/JJ	.	.	.	.	.	.	.
*	*	*	*	*	*	*	*	*	*	*	*Xtremolo
=48	=48	=48	=48	=48	=48	=48	=48	=48	=48	=48	=48
4AA/	.	4A/	.	4A/	.	4c#\	.	4ee\	-e-	4a/	4ee\
4r	.	4r	.	4r	.	4B\	.	4dd\	.	4r	4r
4D\	.	4r	.	4r	.	4A\	-e-	4cc#\	.	4r	4r
=49	=49	=49	=49	=49	=49	=49	=49	=49	=49	=49	=49
!	!	!LO:N:vis=0	!	!LO:N:vis=0	!	!	!	!	!	!LO:N:vis=00	!LO:N:vis=00
2AA/	.	1.r	.	1.r	.	4B\	-le-	4dd\	-e-	0.r	0.r
.	.	.	.	.	.	4A\	-i-	4cc#\	-le-	.	.
4AA/	.	.	.	.	.	4G#X\	.	4b\	-i-	.	.
=50	=50	=50	=50	=50	=50	=50	=50	=50	=50	=50	=50
!LO:SIC:s:o=:v:dodatkowa pauza w violino 1mo i 2do	!	!LO:SIC:s:o=:v:dodatkowa pauza w violino 1mo i 2do	!	!LO:SIC:s:o=:v:dodatkowa pauza w violino 1mo i 2do	!	!LO:SIC:s:o=:v:dodatkowa pauza w violino 1mo i 2do	!	!LO:SIC:s:o=:v:dodatkowa pauza w violino 1mo i 2do	!	!LO:SIC:s:o=:v:dodatkowa pauza w violino 1mo i 2do	!LO:SIC:s:o=:v:dodatkowa pauza w violino 1mo i 2do
2.ryy	.	.	.	.	.	2.ryy	.	2.ryy	.	.	.
=51	=51	=51	=51	=51	=51	=51	=51	=51	=51	=51	=51
2BB/	6\	4r	.	4r	.	4A\	-son-	4cc#\	-son-	.	.
.	.	4r	.	4r	.	4r	.	4r	.	.	.
!	!	!	!	!	!LO:DY:t=p&colon;	!	!	!	!	!	!
4BB/	.	4a/	.	4a/	p	4A\	-e-	4cc#\	-e	.	.
=52	=52	=52	=52	=52	=52	=52	=52	=52	=52	=52	=52
*	*	*tremolo	*	*tremolo	*	*	*	*	*	*	*
4AA/	.	8e/L	.	8e/L	.	8G#X\L	-lei-	8b\L	-lei-	.	.
.	.	8e/	.	8e/	.	8A\J	.	8cc#\J	.	.	.
4r	.	8e/	.	8e/	.	8G#\L	.	8b\L	.	.	.
.	.	8e/	.	8e/	.	8A\J	.	8cc#\J	.	.	.
4r	.	8e/	.	8e/	.	8G#\L	.	8b\L	.	.	.
!	!	!	!	!	!	!	!	!LO:TX:a:t=d	!	!	!
!	!	!	!	!	!	!	!	!LO:SIC:o:s=:v:niejednoznaczny zapis wysokości dźwięku	!	!	!
.	.	8e/J	.	8e/J	.	8B\J	.	8cc#\J	.	.	.
*	*	*Xtremolo	*	*Xtremolo	*	*	*	*	*	*	*
=53	=53	=53	=53	=53	=53	=53	=53	=53	=53	=53	=53
!LO:N:vis=00	!	!	!	!	!	!	!	!	!	!LO:N:vis=00	!LO:N:vis=00
0.r	.	8a/L	.	8a/L	.	8A\L	.	8cc#\L	.	0.r	0.r
.	.	8A/	.	8A/	.	8B\J	.	8dd\	.	.	.
.	.	8A/	.	8A/	.	8A\L	.	8cc#\	.	.	.
.	.	8A/	.	8A/	.	8B\J	.	8dd\J	.	.	.
.	.	8A/	.	8A/	.	8A\L	.	8cc#\L	.	.	.
.	.	8A/J	.	8A/J	.	8c#\J	.	8ee\J	.	.	.
=54	=54	=54	=54	=54	=54	=54	=54	=54	=54	=54	=54
*	*	*tremolo	*	*tremolo	*	*	*	*	*	*	*
.	.	8e/L	.	8e/L	.	8G#X\L	.	8b\L	.	.	.
.	.	8e/	.	8e/	.	8A\J	.	8cc#\J	.	.	.
.	.	8e/	.	8e/	.	8G#\L	.	8b\L	.	.	.
.	.	8e/	.	8e/	.	8A\J	.	8cc#\J	.	.	.
.	.	8e/	.	8e/	.	8G#\L	.	8b\L	.	.	.
.	.	8e/J	.	8e/J	.	8B\J	.	8dd\J	.	.	.
*	*	*Xtremolo	*	*Xtremolo	*	*	*	*	*	*	*
=55	=55	=55	=55	=55	=55	=55	=55	=55	=55	=55	=55
.	.	8a/L	.	8a/L	.	8A\L	.	8cc#\L	.	.	.
.	.	8A/	.	8A/	.	8B\	.	8dd\J	.	.	.
.	.	8A/	.	8A/	.	8A\	.	8cc#\L	.	.	.
.	.	8A/	.	8A/	.	8B\	.	8dd\J	.	.	.
.	.	8A/	.	8A/	.	8A\	.	8cc#\L	.	.	.
.	.	8A/J	.	8A/J	.	8c#\J	.	8ee\J	.	.	.
!	!	!	!	!	!	!LO:LB:g=original	!	!	!	!	!
=56	=56	=56	=56	=56	=56	=56	=56	=56	=56	=56	=56
.	.	4G#X/	.	4G#X/	.	4d\	-son-	4ff#\	-son-	.	.
!	!	!	!	!	!	!	!	!LO:LB:g=original	!	!	!
.	.	4G#/	.	4G#/	.	4c#\	-e-	4ee\	-e-	.	.
.	.	4G#/	.	4G#/	.	4B\	.	4dd\	.	.	.
=57	=57	=57	=57	=57	=57	=57	=57	=57	=57	=57	=57
!LO:N:vis=0	!	!	!	!	!	!	!	!	!	!LO:N:vis=00	!LO:N:vis=00
1.r	.	8A/L	.	8A/L	.	8A\L	-lei-	8cc#\L	-lei-	0.r	0.r
.	.	8B/J	.	8d/J	.	8D\J	.	8a\J	.	.	.
.	.	2e/	.	2e/	.	2E/	.	2b\	.	.	.
=58	=58	=58	=58	=58	=58	=58	=58	=58	=58	=58	=58
.	.	8a\L	.	8a\L	.	4AA/	-son-	4a\	-son-	.	.
.	.	16b\L	.	16b\L	.	.	.	.	.	.	.
.	.	16cc#\JJ	.	16cc#\JJ	.	.	.	.	.	.	.
.	.	16dd\LL	.	16dd\LL	.	4r	.	4r	.	.	.
.	.	16ee\JJ	.	16ee\	.	.	.	.	.	.	.
.	.	16ff#\LL	.	16ff#\	.	.	.	.	.	.	.
.	.	16gg#X\JJ	.	16gg#X\JJ	.	.	.	.	.	.	.
!	!	!LO:LB:g=original	!	!	!	!	!	!	!	!	!
.	.	16aa\LL	.	16aa\LL	.	4r	.	4r	.	.	.
.	.	16ee\	.	16ee\	.	.	.	.	.	.	.
.	.	16cc#\	.	16cc#\	.	.	.	.	.	.	.
.	.	16a\JJ	.	16a\JJ	.	.	.	.	.	.	.
!	!	!	!	!LO:LB:g=original	!	!	!	!	!	!	!
=59	=59	=59	=59	=59	=59	=59	=59	=59	=59	=59	=59
4A\	.	4cc#'\	.	16ee\LL	.	4A\	-Ki-	4ee\	-Ki-	.	.
.	.	.	.	16aa\	.	.	.	.	.	.	.
.	.	.	.	16ee\	.	.	.	.	.	.	.
.	.	.	.	16cc#\JJ	.	.	.	.	.	.	.
4A\	.	4cc#'\	.	16a\LL	.	4A\	-ri-	4ee\	-ri-	.	.
.	.	.	.	16b\	.	.	.	.	.	.	.
.	.	.	.	16cc#\	.	.	.	.	.	.	.
.	.	.	.	16dd\JJ	.	.	.	.	.	.	.
4A\	.	4cc#'\	.	8ee\L	.	4A\	-e-	4ee\	-e-	.	.
.	.	.	.	8a\J	.	.	.	.	.	.	.
=60	=60	=60	=60	=60	=60	=60	=60	=60	=60	=60	=60
4d\	.	8dd\	.	8ff#\	.	4d\	-e-	4ff#\	-e-	.	.
.	.	4cc#\	.	4ee\	.	.	.	.	.	.	.
4d\	.	.	.	.	.	4d\	-lei-	4ff#\	-lei-	.	.
.	.	4b\	.	4ee\	.	.	.	.	.	.	.
4d\	.	.	.	.	.	4d\	-son-	4ff#\	-son-	.	.
.	.	8a/	.	16dd\LL	.	.	.	.	.	.	.
.	.	.	.	16cc#\JJ	.	.	.	.	.	.	.
=61	=61	=61	=61	=61	=61	=61	=61	=61	=61	=61	=61
!	!	!	!	!	!	!	!	!	!	!LO:N:vis=00	!LO:N:vis=00
4G#X\	.	4b/	.	16dd\LL	.	4G#X\	.	4dd\	.	0.r	0.r
.	.	.	.	16gg#X\	.	.	.	.	.	.	.
.	.	.	.	16dd\	.	.	.	.	.	.	.
.	.	.	.	16cc#\JJ	.	.	.	.	.	.	.
4G#\	.	4b/	.	16g/LL	.	4G#\	.	4dd\	.	.	.
.	.	.	.	16a/	.	.	.	.	.	.	.
.	.	.	.	16b/	.	.	.	.	.	.	.
.	.	.	.	16cc#/JJ	.	.	.	.	.	.	.
4G#\	.	4b/	.	8dd\L	.	4G#\	.	4dd\	.	.	.
.	.	.	.	8b\J	.	.	.	.	.	.	.
=62	=62	=62	=62	=62	=62	=62	=62	=62	=62	=62	=62
4c#\	.	8cc#/	.	8ee\	.	4c#\	.	4ee\	.	.	.
.	.	4b/	.	4dd\	.	.	.	.	.	.	.
4c#\	.	.	.	.	.	4c#\	.	4ee\	.	.	.
.	.	4a/	.	4cc#\	.	.	.	.	.	.	.
4c#\	.	.	.	.	.	4c#\	.	4ee\	.	.	.
.	.	8g/	.	8b\	.	.	.	.	.	.	.
=63	=63	=63	=63	=63	=63	=63	=63	=63	=63	=63	=63
4F#\	.	4a'/	.	16cc#\LL	.	4F#\	-Ky-	4cc#\	-Ky-	.	.
.	.	.	.	16ff#\	.	.	.	.	.	.	.
.	.	.	.	16cc#\	.	.	.	.	.	.	.
.	.	.	.	16a\JJ	.	.	.	.	.	.	.
4F#\	.	4a'/	.	16f#/LL	.	4F#\	-ri-	4cc#\	-ri-	.	.
.	.	.	.	16g/	.	.	.	.	.	.	.
.	.	.	.	16a/	.	.	.	.	.	.	.
.	.	.	.	16b/JJ	.	.	.	.	.	.	.
4F#\	.	4a'/	.	8cc#/L	.	4F#\	-e-	4cc#\	-e-	.	.
.	.	.	.	8f#/J	.	.	.	.	.	.	.
=64	=64	=64	=64	=64	=64	=64	=64	=64	=64	=64	=64
4B\	.	8b/	.	8dd\	.	4B\	-e-	4dd\	-e-	.	.
.	.	4a/	.	4cc#\	.	.	.	.	.	.	.
4B\	.	.	.	.	.	4B\	-lei-	4dd\	-lei-	.	.
.	.	4g/	.	4b\	.	.	.	.	.	.	.
4B\	.	.	.	.	.	4B\	-son-	4dd\	-son-	.	.
.	.	8f#/	.	8a/	.	.	.	.	.	.	.
=65	=65	=65	=65	=65	=65	=65	=65	=65	=65	=65	=65
!	!	!	!	!	!	!	!	!	!	!LO:N:vis=0	!LO:N:vis=0
4E\	.	8e/	.	8g#X/	.	4E\	-Ki-	4b\	.	1.r	1.r
.	.	4gg#X\	.	4bb\	.	.	.	.	.	.	.
4F#\	.	.	.	.	.	4F#\	-ri-	4b\	.	.	.
.	.	8ee\	.	8gg\	.	.	.	.	.	.	.
4G#X\	6	8b\L	.	8ee\L	.	4G#X\	-e-	4b\	.	.	.
.	.	8gg#\J	.	8bb\J	.	.	.	.	.	.	.
!LO:LB:g=original	!	!	!	!	!	!LO:LB:g=original	!	!	!	!	!
=66	=66	=66	=66	=66	=66	=66	=66	=66	=66	=66	=66
4A\	.	8aa\L	.	8ccc#\L	.	4A\	-e-	4cc#\	.	.	.
.	.	8aa\J	.	8ccc#\J	.	.	.	.	.	.	.
4D\	.	8ff#\L	.	8aa\L	.	4D\	-le-	2dd\	.	.	.
.	.	8ff#\	.	8aa\	.	.	.	.	.	.	.
!LO:SIC:o:s=:v:nieczytelne cyfrowanie	!	!	!	!	!	!	!	!	!	!	!
4E\	.	8gg\	.	8bb\	.	4E\	-i-	.	.	.	.
.	.	8gg\J	.	8bb\J	.	.	.	.	.	.	.
=67	=67	=67	=67	=67	=67	=67	=67	=67	=67	=67	=67
4AA/	.	8aa\L	.	8aa\L	.	4AA/	-son-	4ee\	-Ki-	4r	4r
.	.	8cc#\	.	8ee\J	.	.	.	.	.	.	.
!	!	!	!	!LO:LB:g=original	!	!	!	!	!	!	!
*	*	*	*	*tremolo	*	*	*	*	*	*	*
4A\	.	8cc#\	.	8ee\L	.	4A\	-Chris-	4cc#\	-ri-	4a/	4ee\
.	.	8cc#\	.	8ee\	.	.	.	.	.	.	.
!	!	!	!	!	!	!	!	!LO:LB:g=original	!	!	!
4A\	.	8cc#\	.	8ee\	.	4A\	-te-	4cc#\	-e-	4a/	4ee\
.	.	8cc#\J	.	8ee\J	.	.	.	.	.	.	.
*	*	*	*	*Xtremolo	*	*	*	*	*	*	*
!	!	!LO:LB:g=original	!	!	!	!	!	!	!	!	!
=68	=68	=68	=68	=68	=68	=68	=68	=68	=68	=68	=68
2A\	4 2	2dd\	.	2ff#\	.	2A\	.	2dd\	-e-	2a/	2ee\
4F#\	6	4ff#\	.	4aa\	.	4F#\	.	4dd\	-lei-	4dd\	4ff#\
!	!	!	!	!	!	!	!	!	!	!LO:LB:g=original	!
=69	=69	=69	=69	=69	=69	=69	=69	=69	=69	=69	=69
.	6	.	.	.	.	.	.	.	.	.	.
4Gn\	6	4gg\	.	4bb\	.	4Gn\	-e-	4dd\	.	4dd\	4gg\
4A\	5	2cc#\	.	2eeT\	.	4E\	-le-	4dd\	.	2a/	2ee\
4AA/	.	.	.	.	.	4A\	-i-	4cc#\	.	.	.
=70	=70	=70	=70	=70	=70	=70	=70	=70	=70	=70	=70
4D/	.	8d/L	.	8d/L	.	4D/	-son-	4dd\	-son	4dd\	4ff#\
.	.	16e/L	.	16e/L	.	.	.	.	.	.	.
.	.	16f#/JJ	.	16f#/JJ	.	.	.	.	.	.	.
*	*	*	*	*	*	*	*	*	*	*	*tremolo
4D/	.	16g/LL	.	16g/LL	.	4r	.	4r	.	8dd\L	8ff#\L
.	.	16a/	.	16a/	.	.	.	.	.	.	.
.	.	16b/	.	16b/	.	.	.	.	.	8dd\	8ff#\
.	.	16cc#/JJ	.	16cc#/JJ	.	.	.	.	.	.	.
4D/	.	16dd\LL	.	16dd/LL	.	4r	.	4r	.	8dd\	8ff#\
.	.	16a\JJ	.	16a/	.	.	.	.	.	.	.
.	.	16f#/LL	.	16f#/	.	.	.	.	.	8dd\J	8ff#\J
.	.	16d/JJ	.	16d/JJ	.	.	.	.	.	.	.
*	*	*	*	*	*	*	*	*	*	*	*Xtremolo
=71	=71	=71	=71	=71	=71	=71	=71	=71	=71	=71	=71
4A\	.	8a\L	.	8a\L	.	2.r	.	2.r	.	4a/	4ee\
.	.	16b\L	.	16b\L	.	.	.	.	.	.	.
.	.	16cc#\JJ	.	16cc#\JJ	.	.	.	.	.	.	.
*	*	*	*	*	*	*	*	*	*	*	*tremolo
4A\	.	16dd\LL	.	16dd\LL	.	.	.	.	.	8a/L	8ee\L
.	.	16ee\	.	16ee\	.	.	.	.	.	.	.
.	.	16ff#\	.	16ff#\	.	.	.	.	.	8a/	8ee\
.	.	16gg#X\JJ	.	16gg#X\JJ	.	.	.	.	.	.	.
4A\	.	16aa\LL	.	16aa\LL	.	.	.	.	.	8a/	8ee\
.	.	16ee\	.	16ee\	.	.	.	.	.	.	.
.	.	16cc#\	.	16cc#\	.	.	.	.	.	8a/J	8ee\J
.	.	16a\JJ	.	16a\JJ	.	.	.	.	.	.	.
*	*	*	*	*	*	*	*	*	*	*	*Xtremolo
!	!	!	!	!	!	!	!	!	!	!	!LO:LB:g=original
=72	=72	=72	=72	=72	=72	=72	=72	=72	=72	=72	=72
4d\	.	8dd\L	.	8dd\L	.	4r	.	4r	.	4dd\	4ff#\
.	.	16ee\L	.	16ee\L	.	.	.	.	.	.	.
.	.	16ff#\JJ	.	16ff#\JJ	.	.	.	.	.	.	.
*	*	*	*	*	*	*	*	*	*	*	*tremolo
4D/	.	16gg\LL	.	16gg\LL	.	4r	.	4r	.	8dd\L	8ff#\L
.	.	16aa\	.	16aa\	.	.	.	.	.	.	.
.	.	16bb\	.	16bb\	.	.	.	.	.	8dd\	8ff#\
.	.	16ccc#\JJ	.	16ccc#\JJ	.	.	.	.	.	.	.
4D/	.	16ddd\LL	.	16ddd\LL	.	4D/	-e-	4ff#\	-e-	8dd\	8ff#\
.	.	16aa\	.	16aa\	.	.	.	.	.	.	.
.	.	16ff#\	.	16ff#\	.	.	.	.	.	8dd\J	8ff#\J
.	.	16dd\JJ	.	16dd\JJ	.	.	.	.	.	.	.
*	*	*	*	*	*	*	*	*	*	*	*Xtremolo
=73	=73	=73	=73	=73	=73	=73	=73	=73	=73	=73	=73
2.A\	.	8cc#\L	.	8ee\L	.	[<2.A\	-lei-	8ee\L	-lei-	4a/	4ee\
.	.	8dd\	.	8ff#\	.	.	.	8ff#\J	.	.	.
.	.	8cc#\	.	8ee\	.	.	.	8ee\L	.	4r	4r
.	.	8dd\	.	8ff#\	.	.	.	8ff#\J	.	.	.
.	.	8cc#\	.	8ee\	.	.	.	8ee\L	.	4a/	4a/
.	.	8ee\J	.	8gg\J	.	.	.	8gg\J	.	.	.
!LO:LB:g=original	!	!	!	!	!	!	!	!	!	!	!
=74	=74	=74	=74	=74	=74	=74	=74	=74	=74	=74	=74
[<2.A\	.	8dd\L	.	8ff#\L	.	2.A\_<	.	8ff#\L	.	4a/	4a/
.	.	8ee\	.	8gg\	.	.	.	8gg\J	.	.	.
.	.	8dd\	.	8ff#\	.	.	.	8ff#\L	.	4r	4r
.	.	8ee\	.	8gg\	.	.	.	8gg\J	.	.	.
.	.	8dd\	.	8ff#\	.	.	.	8ff#\L	.	4a/	4a/
.	.	8ff#\J	.	8aa\J	.	.	.	8aa\J	.	.	.
!	!	!LO:LB:g=original	!	!	!	!	!	!	!	!	!
=75	=75	=75	=75	=75	=75	=75	=75	=75	=75	=75	=75
2.A\_<	.	8cc#\L	p	8ee\L	p	2.A\_<	.	8ee\L	.	4a/	4a/
.	.	8dd\	.	8ff#\	.	.	.	8ff#\J	.	.	.
.	.	8cc#\	.	8ee\	.	.	.	8ee\L	.	4r	4r
.	.	8dd\	.	8ff#\	.	.	.	8ff#\J	.	.	.
.	.	8cc#\	.	8ee\	.	.	.	8ee\L	.	4a/	4a/
.	.	8ee\J	.	8gg\J	.	.	.	8gg\J	.	.	.
=76	=76	=76	=76	=76	=76	=76	=76	=76	=76	=76	=76
2.A\]	.	8dd\L	.	8ff#\L	.	(<2.A\]	.	8ff#\L	.	4a/	4a/
.	.	8ee\	.	8gg\	.	.	.	8gg\J	.	.	.
.	.	8dd\	.	8ff#\	.	.	.	8ff#\L	.	4r	4r
.	.	8ee\	.	8gg\	.	.	.	8gg\J	.	.	.
.	.	8dd\	.	8ff#\	.	.	.	8ff#\L	.	4a/	4a/
.	.	8ff#\J	.	8aa\J	.	.	.	8aa\J	.	.	.
!	!	!	!	!LO:LB:g=original	!	!	!	!	!	!	!
=77	=77	=77	=77	=77	=77	=77	=77	=77	=77	=77	=77
*	*	*	*	*	*	*	*	*	*	*	*tremolo
4G\	.	4gg'\	.	4bb`\	f	4G\)	-son-	2dd\	-son-	8f#/L	8dd\L
.	.	.	.	.	.	.	.	.	.	8f#/	8dd\
4F#\	.	4ff#'\	.	4aa`\	.	4F#\	-e-	.	.	8f#/	8dd\
.	.	.	.	.	.	.	.	.	.	8f#/	8dd\J
*	*	*	*	*	*	*	*	*	*	*	*Xtremolo
!	!	!	!	!	!	!	!	!LO:LB:g=original	!	!	!
4E\	.	4ee'\	.	4gg`\	.	4E\	.	4cc#\	-e-	8a/	8ee\L
.	.	.	.	.	.	.	.	.	.	8a/J	8ee\J
!	!	!	!	!	!	!LO:LB:g=original	!	!	!	!LO:LB:g=original	!
=78	=78	=78	=78	=78	=78	=78	=78	=78	=78	=78	=78
8D\L	6	4dd\	.	8ff#\L	.	8D\L	-lei-	4dd\	-lei-	4dd\	4ff#\
.	5	.	.	.	.	.	.	.	.	.	.
8F#\J	.	.	.	8ee\J	.	8F#\J	.	.	.	.	.
4A\	.	2cc#\	.	2ee\	.	4A\	.	2ee\	.	2a/	2ee\
4AA/	4	.	.	.	.	4AA/	.	.	.	.	.
.	3	.	.	.	.	.	.	.	.	.	.
=79	=79	=79	=79	=79	=79	=79	=79	=79	=79	=79	=79
!	!	!	!LO:DY:rj	!	!	!	!	!	!	!	!
*	*	*	*	*	*	*	*	*	*	*tremolo	*tremolo
8D\L	.	8d/L	f	8d/L	.	4D/	-son-	4ff#\	-son-	8dd\L	8ff#\L
16E\L	.	16e/L	.	16e/L	.	.	.	.	.	8dd\	8ff#\
16F#\JJ	.	16f#/JJ	.	16f#/JJ	.	.	.	.	.	.	.
16G\LL	.	16g/LL	.	16g/LL	.	4r	.	4r	.	8dd\	8ff#\
16A\	.	16a/	.	16a/	.	.	.	.	.	.	.
16B\	.	16b/	.	16b/	.	.	.	.	.	8dd\	8ff#\
16c#\JJ	.	16cc#/JJ	.	16cc#/JJ	.	.	.	.	.	.	.
16d\LL	.	16dd\LL	.	16dd/LL	.	4D/	-e-	4ff#\	-e-	8dd\	8ff#\
16A\	.	16a\JJ	.	16a/	.	.	.	.	.	.	.
16F#\	.	16f#/LL	.	16f#/	.	.	.	.	.	8dd\J	8ff#\J
16D\JJ	.	16d/JJ	.	16d/JJ	.	.	.	.	.	.	.
*	*	*	*	*	*	*	*	*	*	*Xtremolo	*Xtremolo
=80	=80	=80	=80	=80	=80	=80	=80	=80	=80	=80	=80
!	!	!LO:SIC:o=:v:wykreślone dwa takty	!	!	!	!	!	!	!	!	!
2.A\	.	8cc#\L	.	8ee\L	.	[<2.A\	-lei-	8ee\L	-lei-	4a/	4ee\
.	.	8dd\	.	8ff#\	.	.	.	8ff#\J	.	.	.
.	.	8cc#\	.	8ee\	.	.	.	8ee\L	.	4r	4r
.	.	8dd\	.	8ff#\	.	.	.	8ff#\J	.	.	.
.	.	8cc#\	.	8ee\	.	.	.	8ee\L	.	4a/	4a/
.	.	8ee\J	.	8gg\J	.	.	.	8gg\J	.	.	.
!LO:LB:g=original	!	!	!	!	!	!	!	!	!	!	!
=81	=81	=81	=81	=81	=81	=81	=81	=81	=81	=81	=81
[<2.A\	.	8dd\L	.	8ff#\L	.	2.A\_<	.	8ff#\L	.	4a/	4a/
.	.	8ee\	.	8gg\	.	.	.	8gg\J	.	.	.
.	.	8dd\	.	8ff#\	.	.	.	8ff#\L	.	4r	4r
.	.	8ee\	.	8gg\	.	.	.	8gg\J	.	.	.
.	.	8dd\	.	8ff#\	.	.	.	8ff#\L	.	4a/	4a/
.	.	8ff#\J	.	8aa\J	.	.	.	8aa\J	.	.	.
=82	=82	=82	=82	=82	=82	=82	=82	=82	=82	=82	=82
!	!	!	!LO:DY:t=piano	!	!	!	!	!	!	!	!
2.A\_<	.	8cc#\L	p	8ee\L	p	2.A\_<	.	8ee\L	.	4a/	4a/
.	.	8dd\	.	8ff#\	.	.	.	8ff#\J	.	.	.
.	.	8cc#\	.	8ee\	.	.	.	8ee\L	.	4r	4r
.	.	8dd\	.	8ff#\	.	.	.	8ff#\J	.	.	.
.	.	8cc#\	.	8ee\	.	.	.	8ee\L	.	4a/	4a/
.	.	8ee\J	.	8gg\J	.	.	.	8gg\J	.	.	.
=83	=83	=83	=83	=83	=83	=83	=83	=83	=83	=83	=83
2.A\]	.	8dd\L	.	8ff#\L	.	(<2.A\]	.	8ff#\L	.	4a/	4a/
.	.	8ee\	.	8gg\	.	.	.	8gg\J	.	.	.
.	.	8dd\	.	8ff#\	.	.	.	8ff#\L	.	4r	4r
.	.	8ee\	.	8gg\	.	.	.	8gg\J	.	.	.
.	.	8dd\	.	8ff#\	.	.	.	8ff#\L	.	4a/	4a/
.	.	8ff#\J	.	8aa\J	.	.	.	8aa\J	.	.	.
=84	=84	=84	=84	=84	=84	=84	=84	=84	=84	=84	=84
*	*	*	*	*	*	*	*	*	*	*tremolo	*tremolo
4G\	.	4gg\	f	4bb\	f	4G\)	-son-	2dd\	.	8f#/L	8dd\L
.	.	.	.	.	.	.	.	.	.	8f#/	8dd\
4F#\	.	4ff#\	.	4aa\	.	4F#\	-e-	.	.	8f#/	8dd\
.	.	.	.	.	.	.	.	.	.	8f#/J	8dd\
*	*	*	*	*	*	*	*	*	*	*Xtremolo	*Xtremolo
4E\	.	4ee\	.	4gg\	.	4E\	.	4cc#\	.	8a/L	8ee\L
.	.	.	.	.	.	.	.	.	.	8a/J	8ee\J
=85	=85	=85	=85	=85	=85	=85	=85	=85	=85	=85	=85
8D\L	6	4dd\	.	8ff#\L	.	8D\L	-lei-	4dd\	-son-	4dd\	4ff#\
.	5	.	.	.	.	.	.	.	.	.	.
8G\J	.	.	.	8ee\J	.	8F#\J	.	.	.	.	.
4A\	.	2cc#\	.	2eeT\	.	4A\	.	2ee\	-e-	2f#/	2ee\
4AA/	.	.	.	.	.	4AA/	-son-	.	.	.	.
=86	=86	=86	=86	=86	=86	=86	=86	=86	=86	=86	=86
4D/	.	4dd\	.	4dd\	.	4D/	-e-	4dd\	-lei-	4dd\	4ff#\
*	*	*	*	*	*	*	*	*	*	*	*tremolo
4D/	.	4d/ 4a/ 4ff#/	.	4d/ 4a/ 4ff#/	.	4d\	-le-	4ff#\	.	8f#/L	8a/L
.	.	.	.	.	.	.	.	.	.	8f#/	8a/
4D/	.	4d/ 4a/ 4ff#/	.	4d/ 4a/ 4ff#/	.	4d\	-i-	4ff#\	.	8f#/	8a/
.	.	.	.	.	.	.	.	.	.	8f#/J	8a/J
*	*	*	*	*	*	*	*	*	*	*	*Xtremolo
!	!	!	!	!	!	!	!	!	!	!	!LO:LB:g=original
=87	=87	=87	=87	=87	=87	=87	=87	=87	=87	=87	=87
4D/	.	4d/ 4a/ 4ff#/	.	4d/ 4a/ 4ff#/	.	4d\	-son	4ff#\	-son	4d/	4f#/
4r	.	4r	.	4r	.	4r	.	4r	.	4r	4r
4r	.	4r	.	4r	.	4r	.	4r	.	4r	4r
=:|!	=:|!	=:|!	=:|!	=:|!	=:|!	=:|!	=:|!	=:|!	=:|!	=:|!	=:|!
*-	*-	*-	*-	*-	*-	*-	*-	*-	*-	*-	*-
!!!system-decoration: s1,s2,s3,s4,s5,s6,s7
!!!RDF**kern: > = above
!!!RDF**kern: < = below
!!!RDF**dynam: p = pia
!!!RDF**dynam: f = for
!!!ENC: Tomasz Grochalski
!!!END: 2020-04-16
!!!EED: Leszek Kubiak
!!!EST: 2020-10-05
